X:1
T:Title
%%score { ( 1 4 5 ) | ( 2 3 ) }
L:1/8
Q:1/4=114
M:6/4
K:Eb
V:1 treble nm="Grand Piano"
V:4 treble 
V:5 treble 
V:2 bass 
V:3 bass 
V:1
 [CEAc]2 [A=B]2 [Ac]2 [E_Ge]2 d2 c2 | [EGB]2 G2 B2 [E_G=Ae]6 | z6 .f6 | e12 | %4
w: DeLoss~Smith * * * * *||||
 G2 G2 G2 [B,DFB]2 G2 F2 | z6 B6 | z6 .G6 | B12[K:bass][K:treble] | A2 [CA]2 [DA]2 [B,FA]2 G2 F2 | %9
w: |||||
 z6 .B6 | [DFBd]2 [Be]2 [Bd]2 [E=Ad]2 F2 c2 | z2 F2 G2 .A6 | d2 c2 =B2 A2 D2 G2 | z6 B6 | z6 .d6 | %15
w: ||||||
 =B6 _B6 | e2 d2 c2 B2 G2 B2 | c2 A2 G2 z2 C2 E2 | D2 c2 B2 D2 c2 B2 | E12 | z2 B2 B2 z2 G2 G2 | %21
w: ||||||
 z2 A2 A2 z2 E2 E2 | z6 .G6 | E12[K:bass] | E2 A2 c2 [ce]2 d2 c2 | .c6 G6 | %26
w: |||||
 =A2 G2 F2 [EGe]2 d2 c2 | z2 D2 E2 F2 c2 d2 | z2 B2 B2 z2 G2 G2 | z2 A2 A2 z2 E2 E2 | %30
w: ||||
 G2 F2 E2 [B,EG]2 [EGB]2 [EGB_d]2 | [Cc]12 | [CEAc]2 [A=B]2 [Ac]2 [E_Ge]2 d2 c2 | %33
w: |||
 [EGB]2 G2 B2 e4 e2 | z6 .f6 | e12 |] %36
w: |||
V:2
 z2 [=B,E]2 [CE]2 z2[K:treble] [E_G]2 [EG]2 | z2 E2 [EG]2 [=B,,,=B,,]6 | %2
 z2[K:treble] [FAB]4[K:bass] z2 [FA]4 | [E,,E,]2 [B,,B,]2 [G,,G,]2 .[E,,E,]6 | %4
 z2 [B,E]2 [B,E]2 z2 [B,E]2 C2 | [E,,E,]4 [A,,A,]2 z2 B,2 B,2 | z2 C2 B,2 z2 B,2 [A,D]2 | %7
 z2 B,2 =E,,2 z2 [B,_D]2 [B,D]2 | z2 B,2 B,2 z2 E2 D2 | %9
 z2[K:treble] [EGc]2[K:bass] [A,,A,]2 G,2 [G,B,]2 [_G,,_G,]2 | %10
 z2[K:treble] [EG]2 [DF]2[K:bass] z2 E2 [E=A]2 | z2 D2[K:treble] E2 .F6 | %12
 z2[K:treble] [DA]2 [DA]2[K:bass] z2 B,2 [B,D]2 | z2 [G,B,]2 [A,,A,]2 z2 [B,E]2 [B,E]2 | %14
 z2 [=B,D]2 [CE]2 z2 [D_G]2 [D,,D,]2 | z2 [=B,D]2 [B,D]2 z2 [_B,D]2 [B,D]2 | %16
 [E,,E,]2[K:treble] [G,B,EG]2 [G,B,EG]2[K:bass] [B,,,B,,]2 [E,G,B,E]2 [E,G,B,E]2 | %17
 A,,2 [E,A,C]2 [E,A,C]2 =A,,2 [F,=A,]2 [F,A,C]2 | B,,2 [D,A,B,]4 F,,2 [D,A,B,]4 | %19
 E,,2 [B,,E,]2 [E,G,]2 .G,6 | z2[K:treble] G2 G2[K:bass] z2 E2 E2 | z2 E2 E2 z2 B,2 B,2 | %22
 z2[K:treble] [A,E]2 [B,G]2[K:bass] z2 [A,B,]2 [A,B,D]2 | %23
 [E,,E,]4 [F,,F,]2 [G,,G,]2 [F,,F,]2 [E,,E,]2 | %24
 z2[K:treble] [CE]2 [EA]2[K:bass] z2[K:treble] B2 A2 | z2 E2 [EG]2 z2 [G,B,]2 [G,B,]2 | %26
 z2 [=A,CE]2 [A,CE]2 z2[K:treble] [DF]2 [CE]2 | z2 F,2 G,2 A,2 C2 D2 | %28
 z2[K:treble] G2 G2[K:bass] z2 E2 E2 | z2 E2 E2 z2 B,2 B,2 | %30
 z2 [G,B,]2 [B,_D]2 [_D,,_D,]4 [G,,,G,,]2 | [A,,,A,,]2 G,,2 [C,,C,]2 [F,,F,]2 [E,,E,]2 [C,,C,]2 | %32
 z2 [=B,E]2 [CE]2 z2[K:treble] [E_G]2 [EG]2 | z2 E2 [EG]2 [=B,,,=B,,]6 | %34
 z2[K:treble] [FAB]4[K:bass] z2 [FA]4 | [E,,E,]2 [B,,B,]2 [G,,G,]2 .[E,,E,]6 |] %36
V:3
 [A,,,A,,]6 [=A,,,=A,,]6[K:treble] | [B,,,B,,]6 z6 | [B,,,B,,]6[K:treble][K:bass] [B,,,B,,]6 | %3
 x12 | [E,,E,]6 [B,,,B,,]6 | z6 [G,,G,]6 | B,,6 B,,6 | .[G,,G,]6 F,,6 | B,,6 B,,6 | %9
 .[E,,E,]6[K:treble][K:bass] .G,,6 | [F,,F,]6[K:treble][K:bass] [F,,,F,,]6 | %11
 [B,,,B,,]12[K:treble] | [B,,,B,,]6[K:treble][K:bass] [B,,,B,,]6 | .[E,,E,]6 [G,,G,]6 | %14
 [A,,A,]6 .[=A,,=A,]6 | [G,,G,]6 [F,,F,]6 | x2[K:treble] x4[K:bass] x6 | x12 | x12 | x12 | %20
 [E,,E,]6[K:treble][K:bass] [G,,G,]6 | [A,,A,]6 [E,,E,]6 | %22
 [B,,,B,,]6[K:treble][K:bass] [B,,,B,,]6 | x12 | [A,,,A,,]6[K:treble][K:bass] [A,,A,]6[K:treble] | %25
 [E,,E,]6 B,,6 | [F,,F,]6 [F,,,F,,]6[K:treble] | [B,,,B,,]12 | %28
 [E,,E,]6[K:treble][K:bass] [G,,G,]6 | [A,,A,]6 [E,,E,]6 | [E,,E,]6 z6 | x12 | %32
 [A,,,A,,]6 [=A,,,=A,,]6[K:treble] | [B,,,B,,]6 z6 | [B,,,B,,]6[K:treble][K:bass] [B,,,B,,]6 | %35
 x12 |] %36
V:4
 x12 | x12 | [EGBe]2 d4 z4 e2 | [EGB]2 [EGB]2 [EGB]2 .[EGB]6 | x12 | %5
 [B,EG]2 [GBe]2 [EAc]2 z2 E2 E2 | [B,EG]2 [EG]2 [EG]2 z2 D2 F2 | %7
 z2 E2[K:bass] [=E,B,_D]2 z2[K:treble] A2 A2 | x12 | G2 e2 [EAc]2 z2 E2 [CE=Ac]2 | x12 | [B,B]12 | %12
 x12 | F2 E2 [B,Ec]2 z2 G2 G2 | [CEc]2 =B2 c2 z2 =A2 [D_GAc]2 | z2 G2 G2 z2 A2 A2 | x12 | z6 .F6 | %18
 x12 | z2 G,2 B,2 .B,6 | [Ee]6 [B,B]6 | [Cc]6 [G,G]6 | [G,EG]2 A2 B2 z2 D2 F2 | %23
 z2[K:bass] G,2 A,2 B,2 A,2 G,2 | z6 E6 | z2 G2 B2 z2 E2 E2 | x12 | [B,B]12 | [Ee]6 [B,B]6 | %29
 [Cc]6 [G,G]6 | x12 | z2 [A,EA]2 [EA]2 z2 [EA]2 [EA]2 | x12 | z6 [E_G=A]6 | [EGBe]2 d4 z4 e2 | %35
 [EGB]2 [EGB]2 [EGB]2 .[EGB]6 |] %36
V:5
 x12 | x12 | z6 z2 B4 | x12 | x12 | x12 | x12 | z6[K:bass] F,6[K:treble] | x12 | x12 | x12 | x12 | %12
 x12 | x12 | x12 | x12 | x12 | x12 | x12 | x12 | x12 | x12 | x12 | x2[K:bass] x10 | x12 | x12 | %26
 x12 | x12 | x12 | x12 | x12 | x12 | x12 | x12 | z6 z2 B4 | x12 |] %36

